!!!COM: Bach, Johann Sebastian
!!!OPR: Joh. Seb. Bachs vierstimmige Choralgesänge
!!!XEN: Four-part Chorales
!!!OTL: 86. Herr, wie du willst, so schick's mit mir
!!!SCT: BWV 339
!!!SCA: Thematisch-systematisches Verzeichnis der musikalischen Werke Johann Sebastian Bach: Bach-Werke-Verzeichnis (Schmieder)
!!!YOR: Bach Gesellschaft Edition xxxix
!!!ENC: Steven Rasmussen
!!!CDT: 1685/3//-1750/7/28/
!!!OCY: Deutschland
!!!YEC: Copyright (c) 1994, 2000 Center for Computer Assisted Research in the Humanities
!!!YEM: Rights to all derivative editions reserved
!!!YEN: United States of America
**kern	**silbe	**kern	**silbe	**kern	**silbe	**kern	**silbe
*I:[SOPRANO]	*I:[SOPRANO]	*I:[ALTO]	*I:[ALTO]	*I:[TENORE]	*I:[TENORE]	*I:[BASSO]	*I:[BASSO]
*>[A,A,B]	*	*>[A,A,B]	*	*>[A,A,B]	*	*>[A,A,B]	*
*>A	*	*>A	*	*>A	*	*>A	*
*clefG2	*	*clefG2	*	*clefGv2	*	*clefF4	*
*k[f#c#g#]	*	*k[f#c#g#]	*	*k[f#c#g#]	*	*k[f#c#g#]	*
*A:	*	*A:	*	*A:	*	*A:	*
*M4/4	*	*M4/4	*	*M4/4	*	*M4/4	*
=1-	=1-	=1-	=1-	=1-	=1-	=1-	=1-
4r	.	4r	.	4r	.	4r	.
4a/	Herr,al-(Werder?	4e/	.	4c#\	.	4AA/	.
4g#/	wie-leininspricht:	4d/	.	4B\	.	4BB/	.
4a/	duzudemdu	4e/	.	4A/	.	4C#/	.
=2	=2	=2	=2	=2	=2	=2	=2
4b\	willst,dirSchutzHerr	4f#/	.	4A/	.	4D#\	.
4b\	sostehtdesmein'	4c#/	.	4G#/	.	4E#\	.
4a/	schick'smeinH\o3ch-Zu-	4c#/	.	4A/	.	8F#\L	.
.	.	.	.	.	.	8En\J	.
4b\	mitBe--sten-flucht	4f#/	.	8G#/L	.	4Dn\	.
.	.	.	.	8F#/J	.	.	.
=3	=3	=3	=3	=3	=3	=3	=3
2cc#;\	mir-gier,istbist,	2e#;/	.	2G#;/	.	2C#;/	.
4r	.	4r	.	4r	.	4r	.
4dd\	imlassundmein	4f#/	.	4A/	.	8F#\L	.
.	.	.	.	.	.	8G#\J	.
=4	=4	=4	=4	=4	=4	=4	=4
4cc#\	Le-mich,sichGott,	8e/L	.	4A/	.	4.A\	.
.	.	8c#/J	.	.	.	.	.
4b\	-benHerr,GottHoff-	8d#/L	.	4B\	.	.	.
.	.	8e#/J	.	.	.	8G#\	.
4a/	undnichttut-nung	4f#/	.	4c#\	.	8F#\L	.
.	.	.	.	.	.	8E\J	.
8g#/L	imver-er-und	4en/	.	8B/L	.	8D/L	.
8a/J	.	.	.	8A/J	.	8C#/J	.
=5	=5	=5	=5	=5	=5	=5	=5
2b\	Ster--der--ge-Le-	4f#/	.	4A/	.	8D/L	.
.	.	.	.	.	.	8BB/J	.
.	.	8e/L	.	4G#/	.	4E\	.
.	.	8d/J	.	.	.	.	.
2a;/	-ben,-ben.-ben,-ben,)	2c#;/	.	2E;/	.	2AA;/	.
=6:|!	=6:|!	=6:|!	=6:|!	=6:|!	=6:|!	=6:|!	=6:|!
*>B	*	*>B	*	*>B	*	*>B	*
4r	.	4r	.	4r	.	4r	.
4a/	Er-(der	4e/	.	4c#\	.	4A\	.
8b\L	-halt'du	4f#/	.	8d\L	.	4A\	.
8cc#\J	.	.	.	8c#\J	.	.	.
4dd\	michja	8e#/L	.	8B/L	.	8G#\L	.
.	.	8f#/J	.	8A/J	.	8F#\J	.
=7	=7	=7	=7	=7	=7	=7	=7
8cc#\L	nurwirst	4g#/	.	4G#/	.	4E#\	.
8b\J	.	.	.	.	.	.	.
4a/	iner-	4c#/	.	8A/L	.	8F#\L	.
.	.	.	.	8G#/J	.	8En\J	.
8b/L	dei--ret-	4.f#/	.	4F#/	.	8D/L	.
8a/J	.	.	.	.	.	8BB/J	.
4g#/	-ner-ten	.	.	8c#\L	.	4C#/	.
.	.	8e#/	.	8B\J	.	.	.
=8	=8	=8	=8	=8	=8	=8	=8
2f#;/	Huld,mich	2c#;/	.	2A;/	.	2FF#;/	.
4r	.	4r	.	4r	.	4r	.
4g#/	sonstvon	4d#/	.	4G#/	.	4BB#/	.
=9	=9	=9	=9	=9	=9	=9	=9
4e/	wieTeu-	(8e/	.	4G#/	.	8C#/L	.
.	.	4d/)	.	.	.	8BB/J	.
4e/	du-fels	.	.	4A/	.	4AA/	.
.	.	8c#/	.	.	.	.	.
4b\	willst,Stri-	8d#/L	.	8F#/L	.	8AA/L	.
.	.	8e/J	.	8G#/J	.	8GG#/J	.
4cc#\	gib-cken	4e/	.	8Gn/L	.	4AA#/	.
.	.	.	.	8F#/J	.	.	.
=10	=10	=10	=10	=10	=10	=10	=10
8dd\L	mirgn\a3-	8d/L	.	8F#/L	.	4.BB/	.
8cc#\J	.	8f#/J	.	8D/J	.	.	.
4b\	Ge--dig-	4gn/	.	4d\	.	.	.
.	.	.	.	.	.	8C#/	.
2a;/	-duld,-lich	(4g/	.	2d;\	.	2D;\	.
.	.	4f#;/)	.	.	.	.	.
=11	=11	=11	=11	=11	=11	=11	=11
4r	.	4r	.	4r	.	4r	.
4ee\	deinund	[4b\	dein	4e\	dein	4GG#/	.
4cc#\	Will',von	8b/L]	.	4e\	Will',	8AA/L	.
.	.	16a/L	.	.	.	8C#/J	.
.	.	16g#/JJ	.	.	.	.	.
4cc#\	derder	[4a/	Will',	8c#\L	der	8F#\L	.
.	.	.	.	16d\L	.	8E\J	.
.	.	.	.	16e\JJ	.	.	.
=12	=12	=12	=12	=12	=12	=12	=12
(4b\	istPe-	8a/L]	.	8f#\L	ist	4.D\	ist
.	.	16g#/L	.	8e\J	.	.	.
.	.	16f#/JJ	.	.	.	.	.
4a/)	.	4e/	der	4A/	der	.	.
.	.	.	.	.	.	8C#/	.
(4g#/	der-sti-	4e/	ist	8d\L	be-	8BB/L	.
.	.	.	.	8B\J	.	8E/J	.
4a/)	.	4e/	der	[4A/	.	8C#/L	der
.	.	.	.	.	.	8AA/J	.
=13	=13	=13	=13	=13	=13	=13	=13
2b\	be--len-	4.e/	be-	4A/]	.	4E\	be-
.	.	.	.	4G#/	.	4EE/	.
.	.	8d/	.	.	.	.	.
2a;/	-ste.-ze.)	2c#;/	-ste.	2E;/	-ste.	2AA;/	-ste.
==|!	==|!	==|!	==|!	==|!	==|!	==|!	==|!
!!!RNB1: * Alternative text, "Wer in dem Schutz des H\o3chsten ist ... der du ja wirst
!!!RNB2:   erretten mich"
*-	*-	*-	*-	*-	*-	*-	*-
!!!RWG: Key is interpreted using the Humdrum key tool.
!!!END: 1994/06/10/
!!!KEY: 332612765
!!!EMD: Converted from MuseData to Humdrum Dec 19, 2000, by Andreas Kornstaedt using muse2kern.
